X: 1153
M: 2/4
L: 1/16
K: D
[|\
d4 c2d2 | B2d2 A4 | f2d2 g2e2 | d2c2 dABc |\
d4 c2d2 | B2d2 A4 | defa gfge | d2c2 d4 |]
f4 e2f2 | gafg e4 | f4 e2f2 | agfg eage |\
d4 c2d2 | edcB A4 | f3a g2e2 | d2ce "^da Capo"d4 :|

